X: 10741
T: When O'er the deep Abyss the Storms fierce rage
C: Paesiello
Q: "Allegro"
B: "Man of Feeling", Gaetano Brandi, ed. v.1 p.74-75
F: http://archive.org/details/manoffeelingorge00rugg
Z: 2012 John Chambers <jc:trillian.mit.edu>
M: C
L: 1/8
K: F
%%continueall
(cB) | A2 F2 d2 c2 | B4 z2 B2 | (B2 G2) (c2 B2) |
w: When* O'er the deep A-byss the Storms* fierce*
A4 z2 A2 | A2 F2 z2 A> A | (A2 F2) z2 c2 | (c2 A2) z2 c2 | f2 z2 (f2 d2) |
w: rage  En-creas-ing from a-far* dread War* does wage  The*
(=B2 c2) (_B2 G2) | (E2 F2) (G2 A2) | B2 G2 c3 c | f2 ag agag | f2 A2 B2 c2 |
w: dire* con-*tend-*ing* E-le-ments pur-sue | * the shat-ter'd
d2 d a baba | g2 G A B2 B2 | A2 z2 (fefc) | (AF) (Ac) (fe) f c |
w: Ves-sels | * Dis-mal Rocks in View The*** Thun-*ders* rat-*tle the
(AF) (Ac) f2 zc | (AF) (Ac) (fc) (AF) | c2 c2 z2 f2 |
w: Light-*nings* flash far o'er* the* dark-*end* O-cean while
e2 c2 c2 f2 | e2 c2 c2 f2 | G2 G2 =B2 B2 |
w: floods of rain pour down a-main Moun-ta-neous Waves in
% p.75
c2 z2 c2 zc | f3 c g3 c | a4 z2 c2 | f3 c g3 c |
w: Mo-tion De-ter-min'd up a-loft the Brit-ish Sail-or
a4 z2 c2 | e2 e2 e2 e2 | f4 z2 c2 | G2 A2 B2 A2 |
w: goes, where stea-di-ly he works mid'st such tre-men-dous
G2 z2 z2 G2 | G2 d2 c2 B2 | (A2 f2) (e2 d2) | c2 B2 A2 G2 |
w: foes, The awe-ful sight far rount* in* dis-mal views ap-
F4 z4 | c2 c c c2 c2 | A2 z2 F2 z2 | c3 c c3 c |
w: pear,  Yet his un-daunt-ed heart scorns black des-pair or
f4 (fe) f c | (AF) (Ac) f2 zc | d3 d c2 e2 | f4 A4 |
w: fear  Yet* his un-daunt-*ed* heart scorns black des-pair or fear scorns
B3 B c3 c | A2 zf afcA | B2G2 c2c2 | F4 z4 |]
w: black des-pair or fear.
%
%%center -

% Continuation of previous page.

%%sep 2 1 500
%%sep 1 1 500

